!!!OTL: Ihr lustige Brueder, stimmt das schoene Lied a, un' des Lied von de Waldhauer, des jedermann ka'
!!!ARE: Europa, Mitteleuropa, Deutschland, Baden, Alpirsbach
!!!SCT: D0298
!!!YEM: Copyright 1995, estate of Helmut Schaffrath.
**kern
*ICvox
*Ivox
*M3/4
*k[f#c#]
*D:
{4A
=1
4d
4.d
8e
=2
4f#
4f#}
{8d
8f#
=3
4a
4a
8b
8a
=4
4a
4r}
{8a
8a
=5
4b
4.g
8b
=6
8b
8a
4f#
8r}
{8f#
=7
4.a
8e
4a
=8
4f#
4r}
{8a
8a
=9
4b
4.g
8b
=10
8b
8a
4f#
8r}
{8a
=11
4cc#
4b
4g
=12
4f#
4r}
==
!!!AGN: Staende - Lied, Floesserlied
!! Inzipit = Variante zum Lied
!!!ONB: ESAC (Essen Associative Code) Database: DVA
!!!AMT: simple triple
!!!AIN: vox
!!!EED: Helmut Schaffrath
!!!EEV: 1.0
*-
